src/icons/16x16/actions/run-line-symbolic.svg

<?xml version="1.0" encoding="UTF-8" standalone="no"?>
<svg
   height="16px"
   viewBox="0 0 16 16"
   width="16px"
   version="1.1"
   id="svg2"
   sodipodi:docname="play-to-cursor-symbolic.svg"
   inkscape:version="1.3.2 (091e20ef0f, 2023-11-25)"
   xmlns:inkscape="http://www.inkscape.org/namespaces/inkscape"
   xmlns:sodipodi="http://sodipodi.sourceforge.net/DTD/sodipodi-0.dtd"
   xmlns="http://www.w3.org/2000/svg"
   xmlns:svg="http://www.w3.org/2000/svg">
  <defs
     id="defs2" />
  <sodipodi:namedview
     id="namedview2"
     pagecolor="#ffffff"
     bordercolor="#000000"
     borderopacity="0.25"
     inkscape:showpageshadow="2"
     inkscape:pageopacity="0.0"
     inkscape:pagecheckerboard="0"
     inkscape:deskcolor="#d1d1d1"
     showgrid="true"
     inkscape:zoom="23.875"
     inkscape:cx="5.3612565"
     inkscape:cy="10.596859"
     inkscape:window-width="1920"
     inkscape:window-height="1011"
     inkscape:window-x="0"
     inkscape:window-y="0"
     inkscape:window-maximized="1"
     inkscape:current-layer="g2">
    <inkscape:grid
       id="grid2"
       units="px"
       originx="0"
       originy="0"
       spacingx="1"
       spacingy="1"
       empcolor="#0099e5"
       empopacity="0.30196078"
       color="#0099e5"
       opacity="0.14901961"
       empspacing="5"
       dotted="false"
       gridanglex="30"
       gridanglez="30"
       visible="true" />
  </sodipodi:namedview>
  <g
     fill="#222222"
     id="g2">
    <path
       d="m 10 0 v 1 h 2 v 14 h -2 v 1 h 2.5 l 0.5 -0.5 l 0.5 0.5 h 2.5 v -1 h -2 v -14 h 2 v -1 h -2.5 l -0.5 0.5 l -0.5 -0.5 z m 0 0"
       id="path2" />
    <path
       d="M 0,4.0703119 V 11.929688 C 0,13 0.90625,12.996094 0.90625,12.996094 H 1 c 0.171875,0 0.347656,-0.03906 0.5,-0.125 L 8.4999995,8.8710941 c 0.308594,-0.171875 0.46875,-0.5234381 0.46875,-0.8750001 0,-0.351563 -0.160156,-0.703125 -0.46875,-0.875 L 1.5,3.121094 C 1.347656,3.0351561 1.171875,2.996094 1,2.996094 H 0.90625 c 0,0 -0.90625,0 -0.90625,1.0742179 z m 0,0"
       fill="#222222"
       id="path1" />
  </g>
</svg>

<?xml version="1.0" encoding="UTF-8" standalone="no"?>
<svg
   height="16px"
   viewBox="0 0 16 16"
   width="16px"
   version="1.1"
   id="svg2"
   sodipodi:docname="run-line-symbolic.svg"
   inkscape:version="1.3.2 (091e20ef0f, 2023-11-25)"
   xmlns:inkscape="http://www.inkscape.org/namespaces/inkscape"
   xmlns:sodipodi="http://sodipodi.sourceforge.net/DTD/sodipodi-0.dtd"
   xmlns="http://www.w3.org/2000/svg"
   xmlns:svg="http://www.w3.org/2000/svg">
  <defs
     id="defs2" />
  <sodipodi:namedview
     id="namedview2"
     pagecolor="#ffffff"
     bordercolor="#000000"
     borderopacity="0.25"
     inkscape:showpageshadow="2"
     inkscape:pageopacity="0.0"
     inkscape:pagecheckerboard="0"
     inkscape:deskcolor="#d1d1d1"
     showgrid="true"
     inkscape:zoom="33.764348"
     inkscape:cx="3.9686832"
     inkscape:cy="9.8920909"
     inkscape:window-width="1920"
     inkscape:window-height="1011"
     inkscape:window-x="0"
     inkscape:window-y="0"
     inkscape:window-maximized="1"
     inkscape:current-layer="g2">
    <inkscape:grid
       id="grid2"
       units="px"
       originx="0"
       originy="0"
       spacingx="1"
       spacingy="1"
       empcolor="#0099e5"
       empopacity="0.30196078"
       color="#0099e5"
       opacity="0.14901961"
       empspacing="5"
       dotted="false"
       gridanglex="30"
       gridanglez="30"
       visible="true" />
  </sodipodi:namedview>
  <g
     fill="#222222"
     id="g2">
    <path
       d="m 10,0 v 1 h 2 v 14 h -2 v 1 h 2.5 L 13,15.5 13.5,16 H 16 V 15 H 14 V 1 h 2 V 0 H 13.5 L 13,0.5 12.5,0 Z m 0,0"
       id="path2" />
    <path
       d="M 2,4.0703119 V 11.929688 C 2,13 2.90625,12.996094 2.90625,12.996094 H 3 c 0.171875,0 0.347656,-0.03906 0.5,-0.125 l 7,-3.9999999 c 0.308594,-0.171875 0.46875,-0.5234381 0.46875,-0.8750001 0,-0.351563 -0.160156,-0.703125 -0.46875,-0.875 l -7,-4 C 3.347656,3.0351561 3.171875,2.996094 3,2.996094 H 2.90625 c 0,0 -0.90625,0 -0.90625,1.0742179 z m 0,0"
       fill="#222222"
       id="path1" />
  </g>
</svg>
